img/vb-icon.svg

<svg xmlns="http://www.w3.org/2000/svg" viewBox="0 0 128 128" width="24" height="24"><path d="M63.994 24c-8.999 0-23.021.789-31.565 8.221-6.039 5.726-8.431 13.76-8.431 24.158 0 .857-.004 1.829.004 2.857-.008 1.028-.004 1.999-.004 2.856 0 10.4 2.392 18.438 8.431 24.153 3.252 2.838 7.308 4.704 11.567 5.923v8.722c0 3.05 2.099 3.11 2.482 3.11h.017c.989 0 1.843-.46 2.699-1.18.321-.29 4.039-4.23 8.082-8.54 2.408.14 4.696.19 6.716.19 8.999 0 23.02-.78 31.565-8.225C101.6 80.53 104 72.492 104 62.092c0-.857.01-1.828 0-2.856.01-1.047 0-2 0-2.857 0-10.4-2.4-18.434-8.443-24.16C87.014 24.789 72.993 24 63.994 24zM97.99 61.426v.666c0 9.333-2.088 15.714-6.57 20.019-7.763 6.648-22.553 6.648-27.428 6.648-1.483 0-3.891 0-6.734-.191-.79.838-9.263 9.862-9.263 9.862V87.273c-4.206-.971-8.364-2.533-11.426-5.162-4.481-4.305-6.571-10.686-6.571-20.019v-.666c0-.667-.002-1.391.004-2.228-.006-.762-.006-1.486-.004-2.152v-.667c0-9.344 2.09-15.712 6.571-20.022 7.762-6.645 22.551-6.645 27.425-6.645 4.873 0 19.663 0 27.424 6.645 4.484 4.31 6.57 10.678 6.57 20.022v.667c0 .666.002 1.39-.004 2.228.006.761.006 1.485.006 2.152zm-19.997-1.239c-1.104 0-2-.856-2-1.903 0-6.072-4.987-11.082-11.355-11.402-1.104-.055-1.95-.952-1.892-2.002.058-1.051 1.016-1.859 2.102-1.801 8.494.426 15.145 7.106 15.145 15.205 0 1.047-.897 1.903-2 1.903zm4.901 11.143c-2.222-1.771-3.247-2.305-6.315-4.076-1.278-.724-3.225-1.352-4.248-1.352-.698 0-1.534.514-2.045.99-1.313 1.257-1.742 2.819-4.042 2.819-2.25 0-6.179-2.19-9-5.009-2.959-2.686-5.249-6.418-5.249-8.571 0-2.18 1.612-2.619 2.923-3.87.513-.486 1.077-1.282 1.077-1.947 0-.973-.662-2.799-1.428-4.017-1.842-2.923-2.406-3.9-4.28-6.015-.634-.716-1.356-1.043-2.112-1.045-1.277-.002-2.954.602-4.091 1.407-1.708 1.214-3.493 2.865-3.971 4.922-.064.28-.102.562-.114.844-.092 2.143.791 4.318 1.746 6.16 2.245 4.342 5.217 8.532 8.45 12.284 1.034 1.219 2.16 2.324 3.326 3.409 1.132 1.105 2.304 2.172 3.564 3.162 3.94 3.086 8.351 5.905 12.909 8.057 1.916.895 4.172 1.714 6.399 1.657.318 0 .636-.038.954-.114 2.16-.457 3.894-2.152 5.168-3.771.846-1.086 1.479-2.686 1.477-3.905-.002-.724-.345-1.41-1.098-2.019zm1.098-9.238c-1.104 0-1.999-.857-1.999-1.905v-1.903c0-9.451-8.076-17.143-17.999-17.143-1.104 0-2-.853-2-1.904 0-1.052.896-1.905 2-1.905 12.129 0 21.999 9.4 21.999 20.952v1.903c0 1.048-.896 1.905-2.001 1.905zM71.71 58.284c-.888 0-1.7-.572-1.935-1.429-.547-2-2.187-3.562-4.281-4.076-1.07-.265-1.712-1.303-1.436-2.322.276-1.017 1.364-1.628 2.438-1.367 3.496.863 6.236 3.47 7.149 6.813.278 1.009-.362 2.057-1.43 2.324-.17.038-.339.057-.505.057z" fill="#fff"/></svg>

<?xml version="1.0" encoding="UTF-8" standalone="no"?>
<svg xmlns="http://www.w3.org/2000/svg" viewBox="0 0 128 128" width="24" height="24">
<path style="fill:#ffffff" d="M 63.994,24 C 54.995,24 40.973,24.789 32.429,32.221 C 26.39,37.947 23.998,45.981 23.998,56.379 C 23.998,57.236 23.994,58.208 24.002,59.236 C 23.994,60.264 23.998,61.235 23.998,62.092 C 23.998,72.492 26.39,80.53 32.429,86.245 C 35.681,89.083 39.737,90.949 43.996,92.168 V 100.89 C 43.996,103.94 46.095,104 46.478,104 H 46.495 C 47.484,104 48.338,103.54 49.194,102.82 C 49.515,102.53 53.233,98.59 57.276,94.28 C 59.684,94.42 61.972,94.47 63.992,94.47 C 63.992,94.47 63.992,94.47 63.992,94.47 C 63.992,94.47 63.992,94.47 63.992,94.47 C 72.991,94.47 87.012,93.69 95.557,86.245 C 101.6,80.53 104,72.492 104,62.092 C 104,61.235 104.01,60.264 104,59.236 C 104.01,58.189 104,57.236 104,56.379 C 104,45.979 101.6,37.945 95.557,32.219 C 87.014,24.789 72.993,24 63.994,24 Z M 97.99,61.426 V 62.092 C 97.99,71.425 95.902,77.806 91.42,82.111 C 83.657,88.759 68.867,88.759 63.992,88.759 C 62.509,88.759 60.101,88.759 57.258,88.568 C 56.468,89.406 47.995,98.43 47.995,98.43 V 87.273 C 43.789,86.302 39.631,84.74 36.569,82.111 C 32.088,77.806 29.998,71.425 29.998,62.092 V 61.426 C 29.998,60.759 29.996,60.035 30.002,59.198 C 29.996,58.436 29.996,57.712 29.998,57.046 V 56.379 C 29.998,47.035 32.088,40.667 36.569,36.357 C 44.331,29.712 59.12,29.712 63.994,29.712 C 68.867,29.712 83.657,29.712 91.418,36.357 C 95.902,40.667 97.988,47.035 97.988,56.379 V 57.046 C 97.988,57.712 97.99,58.436 97.984,59.274 C 97.99,60.035 97.99,60.759 97.99,61.426 Z M 77.993,60.187 C 76.889,60.187 75.993,59.331 75.993,58.284 C 75.993,52.212 71.006,47.202 64.638,46.882 C 63.534,46.827 62.688,45.93 62.746,44.88 C 62.804,43.829 63.762,43.021 64.848,43.079 C 73.342,43.505 79.993,50.185 79.993,58.284 C 79.993,59.331 79.096,60.187 77.993,60.187 Z M 82.894,71.33 C 80.672,69.559 79.647,69.025 76.579,67.254 C 75.301,66.53 73.354,65.902 72.331,65.902 C 71.633,65.902 70.797,66.416 70.286,66.892 C 68.973,68.149 68.544,69.711 66.244,69.711 C 63.994,69.711 60.065,67.521 57.244,64.702 C 54.285,62.016 51.995,58.284 51.995,56.131 C 51.995,53.951 53.607,53.512 54.918,52.261 C 55.431,51.775 55.995,50.979 55.995,50.314 C 55.995,49.341 55.333,47.515 54.567,46.297 C 52.725,43.374 52.161,42.397 50.287,40.282 C 49.653,39.566 48.931,39.239 48.175,39.237 C 46.898,39.235 45.221,39.839 44.084,40.644 C 42.376,41.858 40.591,43.509 40.113,45.566 C 40.049,45.846 40.011,46.128 39.999,46.41 C 39.907,48.553 40.79,50.728 41.745,52.57 C 43.99,56.912 46.962,61.102 50.195,64.854 C 51.229,66.073 52.355,67.178 53.521,68.263 C 54.653,69.368 55.825,70.435 57.085,71.425 C 61.025,74.511 65.436,77.33 69.994,79.482 C 71.91,80.377 74.166,81.196 76.393,81.139 C 76.711,81.139 77.029,81.101 77.347,81.025 C 79.507,80.568 81.241,78.873 82.515,77.254 C 83.361,76.168 83.994,74.568 83.992,73.349 C 83.99,72.625 83.647,71.939 82.894,71.33 Z M 83.992,62.092 C 82.888,62.092 81.993,61.235 81.993,60.187 V 58.284 C 81.993,48.833 73.917,41.141 63.994,41.141 C 62.89,41.141 61.994,40.288 61.994,39.237 C 61.994,38.185 62.89,37.332 63.994,37.332 C 76.123,37.332 85.993,46.732 85.993,58.284 V 60.187 C 85.993,61.235 85.097,62.092 83.992,62.092 Z M 71.71,58.284 C 70.822,58.284 70.01,57.712 69.775,56.855 C 69.228,54.855 67.588,53.293 65.494,52.779 C 64.424,52.514 63.782,51.476 64.058,50.457 C 64.334,49.44 65.422,48.829 66.496,49.09 C 69.992,49.953 72.732,52.56 73.645,55.903 C 73.923,56.912 73.283,57.96 72.215,58.227 C 72.045,58.265 71.876,58.284 71.71,58.284 Z" />
</svg>
